modules/themify-icons/icons/layout-sidebar-right.svg

<?xml version="1.0" encoding="utf-8"?>
<!-- Generated by IcoMoon.io -->
<!DOCTYPE svg PUBLIC "-//W3C//DTD SVG 1.1//EN" "http://www.w3.org/Graphics/SVG/1.1/DTD/svg11.dtd">
<svg version="1.1" xmlns="http://www.w3.org/2000/svg" xmlns:xlink="http://www.w3.org/1999/xlink" width="17" height="17" viewBox="0 0 17 17">
<g>
</g>
	<path d="M17 0v17h-5v-17h5zM9 17h1v-1h-1v1zM7.223 17h0.889v-1h-0.889v1zM1.889 17h0.889v-1h-0.889v1zM3.667 17h0.889v-1h-0.889v1zM5.445 17h0.889v-1h-0.889v1zM0 17h1v-1h-1v1zM0 9h1v-1h-1v1zM0 3h1v-1h-1v1zM0 11h1v-1h-1v1zM0 7h1v-1h-1v1zM0 13h1v-1h-1v1zM0 15h1v-1h-1v1zM0 5h1v-1h-1v1zM0 1h1v-1h-1v1zM8.111 0h-0.889v1h0.889v-1zM6.333 0h-0.889v1h0.889v-1zM2.777 0h-0.888v1h0.889v-1zM4.555 0h-0.888v1h0.889v-1zM9 1h1v-1h-1v1zM9 15h1v-1h-1v1zM9 13h1v-1h-1v1zM9 9h1v-1h-1v1zM9 11h1v-1h-1v1zM9 5h1v-1h-1v1zM9 7h1v-1h-1v1zM9 3h1v-1h-1v1z" fill="#000000" />
</svg>

<svg xmlns="http://www.w3.org/2000/svg" width="17" height="17" viewBox="0 0 17 17"><path d="M17 0v17h-5V0h5zM9 17h1v-1H9v1zm-1.777 0h.889v-1h-.889v1zm-5.334 0h.889v-1h-.889v1zm1.778 0h.889v-1h-.889v1zm1.778 0h.889v-1h-.889v1zM0 17h1v-1H0v1zm0-8h1V8H0v1zm0-6h1V2H0v1zm0 8h1v-1H0v1zm0-4h1V6H0v1zm0 6h1v-1H0v1zm0 2h1v-1H0v1zM0 5h1V4H0v1zm0-4h1V0H0v1zm8.111-1h-.889v1h.889V0zM6.333 0h-.889v1h.889V0zM2.777 0h-.888v1h.889V0zm1.778 0h-.888v1h.889V0zM9 1h1V0H9v1zm0 14h1v-1H9v1zm0-2h1v-1H9v1zm0-4h1V8H9v1zm0 2h1v-1H9v1zm0-6h1V4H9v1zm0 2h1V6H9v1zm0-4h1V2H9v1z"/></svg>
